!!!!SEGMENT: pl-wumfc--n30968_brzezinska-filipina--la-cloche.krn
!!!cenid: 18xx:4182
!!!COM: Brzezińska, Filipina
!!!COM-rismID: pe30085801
!!!CDT: 1800/01/01-1886/11/11
!!!CNT: Polish
!!!OTL: La Cloche
!!!PDT:
!!!AGN:
!!!SMS-siglum: PL-Wumfc
!!!SMS-shelfmark: N30968
!!!SMS-variant:
!!!SMS-altvar:
!!!SMS-shelfwork: W
!!!NIFC-rismSourceID: 1001161970
!!!NIFC-rismChildID: 1001161970
!!!NIFC-islandoraID: pl-wumfc:3424
!!!URL-pdf-islandora: https://repozytorium.nifc.pl/islandora/object/pl-wumfc%3A3424/datastream/PDF/view
!!!URL-scan: https://polish.musicsources.pl/pl/lokalizacje/galeria/druki-muzyczne/12215-la-cloche/2 @EN{Scan on Polish Music Sources Website} @PL{Skany w portalu Dziedzictwo Muzyki Polskiej w otwartym dostępie}
!!!ONB-nifc:
!!!AIN: 2 piano
!!!key: b-
**kern	**fing	**kern	**fing	**dynam
*part2	*part2	*part1	*part1	*part1
*staff2	*	*staff1	*	*
*I"[Piano.]	*	*I"[Piano.]	*	*
*I'[pf]	*	*I'[pf]	*	*
*ICklav	*	*ICklav	*	*
*Ipiano	*	*Ipiano	*	*
*clefF4	*	*clefG2	*	*
*k[b-e-a-d-g-]	*	*k[b-e-a-d-g-]	*	*
*b-:	*	*b-:	*	*
*M3/4	*	*M3/4	*	*
=1	=1	=1	=1	=1
*ped	*	*	*	*
!	!	!LO:TX:a:i:t=Lento	!	!
2.BBB-/	.	2r	.	.
.	.	4r	.	.
*Xped	*	*	*	*
=2	=2	=2	=2	=2
*ped	*	*	*	*
2.BBB-'/	.	2r	.	.
.	.	4r	.	.
*Xped	*	*	*	*
*ped	*	*	*	*
=3	=3	=3	=3	=3
*ped	*	*	*	*
2.BBB-/	.	2r	.	.
.	.	4r	.	.
*Xped	*	*	*	*
=4	=4	=4	=4	=4
*ped	*	*	*	*
2.BBB-'/	.	2r	.	.
.	.	4r	.	.
*Xped	*	*	*	*
!!LO:LB:g=original	!	!
=5	=5	=5	=5	=5
*ped	*	*	*	*
2BBB-'/	.	4.f/	.	.
.	.	8g-/	.	.
4F\ 4B- 4d-	.	(4f/	.	.
=6	=6	=6	=6	=6
2F\ 2B- 2d-	.	2b-^\	.	fp
4r	.	4dd-^\)	.	.
*Xped	*	*	*	*
=7	=7	=7	=7	=7
*ped	*	*	*	*
2BBB-/	.	4.f/	.	.
.	.	8g-/	.	.
4F\ 4B- 4d-	.	4f/	.	.
=8	=8	=8	=8	=8
2F\ 2B- 2d-	.	2b-^\	.	fp
4r	.	4dd-^\	.	.
*Xped	*	*	*	*
=9	=9	=9	=9	=9
*ped	*	*	*	*
2BBB-'/	.	(8f\L	.	.
.	.	8g-\	.	.
.	.	8f\	.	.
.	.	8b-\	.	<
4F\ 4B- 4d-	.	8f\	.	.
.	.	8dd-\J)	.	[[
!!LO:LB:g=original	!	!
=10	=10	=10	=10	=10
2.F\ 2.B- 2.d-	.	(8f\L	.	<
.	.	8g-\	.	.
.	.	8f\	.	.
.	.	8b-\	.	.
.	.	8f\	.	.
.	.	8dd-\J)	.	[[
*Xped	*	*	*	*
=11	=11	=11	=11	=11
*ped	*	*	*	*
!	!	!LO:N:vis=2.	!	!
2BBB-'/	.	2ff\	.	fp
4G-\ 4B- 4e-	.	4r	.	.
=12	=12	=12	=12	=12
2.G-\ 2.B- 2.e-	.	2ee-\	.	.
.	.	4r	.	.
*Xped	*	*	*	*
=13	=13	=13	=13	=13
*ped	*	*	*	*
2BBB-'/	.	4.g-/	.	.
.	.	8a-/	.	.
4G-\ 4B- 4e-	.	4g-/	.	.
=14	=14	=14	=14	=14
!	!	!	!	!LO:HP:a
2.G-\ 2.B- 2.e-	.	2b-\	.	<
.	.	4ee-\	.	[[
*Xped	*	*	*	*
!!LO:PB:g=original	!	!
=15	=15	=15	=15	=15
*ped	*	*	*	*
2BBB-'/	.	4.g-/	.	.
.	.	8a-/	.	.
4G-\ 4B- 4e-	.	4g-/	.	.
=16	=16	=16	=16	=16
!	!	!	!	!LO:HP:a
2.G-^\ 2.B- 2.e-	.	2ee-\	.	>
.	.	(4gg-^\	.	]]
*Xped	*	*	*	*
=17	=17	=17	=17	=17
*ped	*	*	*	*
2AAn/	.	2ff^\)	.	.
4E-\ 4F 4c	.	(4cc\	.	.
=18	=18	=18	=18	=18
2.E-\ 2.F 2.c	.	(8ccc\L)	.	fp
.	.	8bb-\	.	.
.	.	8aan\	.	.
.	.	8gg-^\	.	.
.	.	8ff\	.	.
.	.	(8cc\J)	.	.
*Xped	*	*	*	*
=19	=19	=19	=19	=19
(8qBBB-/	.	.	.	.
*ped	*	*	*	*
2BB-'/)	.	(2.ee-\)	.	.
4F\ 4B- 4d-	.	.	.	.
!!LO:LB:g=original	!	!
=20	=20	=20	=20	=20
!	!	!LO:TX:t=P:problem: brak łuku w t. 20	!	!
2.F;\ 2.B- 2.d-	.	2.dd-;\)	.	.
*Xped	*	*	*	*
=21	=21	=21	=21	=21
!	!	!LO:TX:a:i:t=piu mosso	!	!
4BB-\	.	4cc\	.	p
(4G-^\ 4An 4e-	.	4dd-^\	.	.
4c\)	.	4an/	.	.
=22	=22	=22	=22	=22
!	!	!	!	!LO:DY:a
4BB-/	.	2b-\	.	fp
(4F^\ 4d-	.	.	.	.
4B-\)	.	4ff^\	.	.
=23	=23	=23	=23	=23
4BB-/	.	(4ee-\	.	p
(4G-^\ 4An 4e-	.	4dd-\	.	.
4c\)	.	4cc\)	.	.
=24	=24	=24	=24	=24
4BB-/	.	2dd-^\	.	.
(4F^\ 4d-	.	.	.	.
4B-\)	.	4b-\	.	.
!!LO:LB:g=original	!	!
=25	=25	=25	=25	=25
4BB-\	.	4cc\	.	.
4G-^\ 4An 4e-	.	4dd-^\	.	.
4c\	.	4an/	.	.
=26	=26	=26	=26	=26
*	*	*	*	*^
4BB-/	.	(2b-\	.	<	.
(4F\ 4d-	.	.	.	.	.
4B-\)	.	4ff^\)	.	.	.
=27	=27	=27	=27	=27	=27
*ped	*	*	*	*	*
!	!	!LO:TX:a:i:t=ral	!	!	!
4CC/ 4C	.	(2een\	.	.	f
4G-\ 4B- 4c 4en	.	.	.	.	.
!	!	!LO:TX:a:i:t=ten	!	!	!
4G-\ 4B- 4c 4e	.	4ccc\)	.	[[	.
*	*	*	*	*v	*v
*Xped	*	*	*	*
=28	=28	=28	=28	=28
*ped	*	*	*	*
!	!	!LO:N:vis=2	!	!
4FF/	.	2.ff;\	.	.
2An;\ 2c 2f	.	.	.	.
=29	=29	=29	=29	=29
8FF/	.	4.ff\	.	.
8r	.	.	.	.
4c^\ 4e-	.	.	.	.
.	.	8ggn^\	.	.
4An\	.	(8cc\L	.	.
.	.	8ddn\J	.	.
!!LO:LB:g=original	!	!
=30	=30	=30	=30	=30
!	!	!LO:TX:t=P:problem: brak łuku w t. 30	!	!
*	*above	*	*	*
4F\	5	2.ee-\)	.	.
*	*below	*	*	*
(4C/	1	.	.	.
4FF/)	2	.	.	.
=31	=31	=31	=31	=31
4BBB-/	.	4.ee-\	.	.
4B-\ 4dn	.	.	.	.
.	.	8ff^\	.	.
*	*above	*	*	*
4F\	4	(8b-\L	.	.
.	.	8cc\J	.	.
=32	=32	=32	=32	=32
*	*below	*	*	*
4Dn\	5	2.ddn\)	.	.
4FF'/	1	.	.	.
4BBB-'/	3	.	.	.
=33	=33	=33	=33	=33
*ped	*	*	*	*
4FFF'/	5	4.ddn\	.	f
4An^\ 4e-	.	.	.	.
.	.	8ee-^\	.	.
*	*above	*	*	*
4F\	4	8g-\L	.	.
.	.	8b-\J	.	.
=34	=34	=34	=34	=34
(4C\	.	4.an\	.	.
4A-\ 4e-	.	.	.	.
.	.	8f\	.	.
4F\)	.	8ddn^\L	.	.
.	.	8cc\J	.	.
!!LO:LB:g=original	!	!	!	!
=35	=35	=35	=35	=35
(4BB-/	.	(8b-\L	.	<
.	.	8cc\	.	.
4B-\ 4dn	.	8ddn\	.	.
.	.	8ee-\	.	.
4F\)	4	8een\	.	.
.	.	8ff\J)	.	[[
=36	=36	=36	=36	=36
*	*	*	*	*^
!	!	!	!	!LO:HP:b:t=dim	!
(4Dn\	.	(8ggn\L	.	>	.
.	.	8ff\	.	>	.
!	!	!	!	!	!LO:DY:a
4B-\ 4d-	.	8bb-\	.	.	fp
.	.	8aan\	.	.	.
.	.	16qqaa/	.	.	.
4F\)	.	8gg\	.	.	.
.	.	8ff^\J)	.	]]	.
*	*	*	*	*v	*v
=37	=37	=37	=37	=37
*ped	*	*	*	*
4FFF/	.	(4.ff\	.	.
4c^\ 4e-	.	.	.	.
.	.	8ggn\)	.	.
4An\	.	(8cc\L	.	.
.	.	8ddn\J	.	.
=38	=38	=38	=38	=38
4F'\	.	2.ee-\)	.	.
(4C/	.	.	.	.
4FF/)	.	.	.	.
=39	=39	=39	=39	=39
*ped	*	*	*	*
4BBB-'/	.	4.ee-^\	.	.
4B-\ 4dn	.	.	.	.
.	.	8ff\	.	.
4F\	4	(8b-\L	.	.
.	.	8cc\J	.	.
!!LO:PB:g=original	!	!	!	!
=40	=40	=40	=40	=40
*	*below	*	*	*
4D-/	5	2.ddn\)	.	.
4FF'/	.	.	.	.
4BBB-'/	.	.	.	.
=41	=41	=41	=41	=41
*ped	*	*	*	*
4FFF;/	.	4.ddn^\	.	.
(4F^\ 4An 4e-	4	.	.	.
.	.	8ee-\	.	.
4C'\)	5	(8gn\L	.	.
.	.	8b-\J	.	.
=42	=42	=42	=42	=42
4F'\ 4An 4e-	4	(8an/L)	.	.
!	!	!LO:TX:b:i:t=rittar	!	!
.	.	8en/	.	.
4FF'/	5	8gn/	.	.
.	.	8f/J)	.	.
4F^\ 4A 4e-	.	8..een^;\	.	.
!	!	!LO:N:vis=16.	!	!
.	.	32cc\	.	.
=43	=43	=43	=43	=43
*ped	*	*	*	*
4BBB-/	.	2b-\	.	.
(4D-\ 4B-	.	.	.	.
4BB-\) 4F	.	4r	.	.
=44	=44	=44	=44	=44
(4Dn\ 4B-	.	2.r	.	.
4BB-\ 4F	.	.	.	.
4D\) 4B-	.	.	.	.
!!LO:LB:g=original	!	!	!	!
=45	=45	=45	=45	=45
*ped	*	*	*	*
!	!	!LO:TX:a:i:t=à tempo	!	!
2BBB-/ 2BB-	.	4.f^\ 4.ff	.	f
.	.	8g-\ 8gg-	4	.
4F\ 4B- 4d-	.	4f\ 4ff	.	.
=46	=46	=46	=46	=46
2.F^\ 2.B- 2.d-	.	2b-\ 2bb-	.	fp
.	.	4dd-'\ 4ddd-	.	.
*Xped	*	*	*	*
=47	=47	=47	=47	=47
*ped	*	*	*	*
2BBB-/ 2BB-	.	4.f\ 4.ff	.	.
.	.	8g-\ 8gg-	.	.
4F\ 4B- 4d-	.	4f\ 4ff	.	.
=48	=48	=48	=48	=48
2.F^\ 2.B- 2.d-	.	2b-\ 2bb-	4	.
.	.	4dd-'\ 4ddd-	.	.
*Xped	*	*	*	*
=49	=49	=49	=49	=49
*ped	*	*	*	*
2BBB-/ 2BB-	.	(8f\L 8ff	.	.
.	.	8g-\ 8gg-	4	.
.	.	8f\ 8ff	.	.
.	.	8b-\ 8bb-	.	.
4F\ 4B- 4d-	.	8f\ 8ff	.	.
.	.	8dd-\J) 8ddd-	.	.
!!LO:LB:g=original	!	!	!	!
=50	=50	=50	=50	=50
*	*	*	*	*^
2.F^\ 2.B- 2.d-	.	(8f\L 8ff	.	<	.
!	!	!	!	!	!LO:DY:a
.	.	8g-\ 8gg-	.	.	fp
.	.	8f\ 8ff	.	.	.
.	.	8b-\ 8bb-	.	.	.
.	.	8f\ 8ff	.	.	.
.	.	8dd-\J) 8ddd-	.	.	.
*Xped	*	*	*	*	*
=51	=51	=51	=51	=51	=51
*ped	*	*8va	*	*	*
2BBB-/ 2BB-	.	((2.ff^\ 2.fff	.	[	fp
4G-\ 4B- 4e-	.	.	.	.	.
*	*	*	*	*v	*v
=52	=52	=52	=52	=52
2.G-\ 2.B- 2.e-	.	2.ee-\)) 2.eee-	.	.
*Xped	*	*X8va	*	*
=53	=53	=53	=53	=53
*ped	*	*	*	*
2BBB-/ 2BB-	.	4.g-^\ 4.gg-	.	.
.	.	8a-\ 8aa-	.	.
4G-\ 4B- 4e-	.	4g-\ 4gg-	.	.
=54	=54	=54	=54	=54
2.G-^\ 2.B- 2.e-	.	((2b-\ 2bb-	4	.
.	.	4ee-'\)) 4eee-	.	.
*Xped	*	*	*	*
!!LO:LB:g=original	!	!	!	!
=55	=55	=55	=55	=55
*ped	*	*	*	*
2BBB-/ 2BB-	.	4.g-^\ 4.gg-	.	.
.	.	8a-\ 8aa-	.	.
4G-\ 4B- 4e-	.	4g-\ 4gg-	.	.
=56	=56	=56	=56	=56
2.G-^\ 2.B- 2.e-	.	2ee-\ 2eee-	.	.
.	.	4gg-^\ 4ggg-	.	.
*Xped	*	*	*	*
=57	=57	=57	=57	=57
(<4qqAAAn\	.	.	.	.
*ped	*	*	*	*
2AAn/)	.	2ff\ 2fff	.	f
4An\ 4c 4e- 4f	.	4cc\ 4ccc	.	.
=58	=58	=58	=58	=58
*	*	*8va	*	*
*	*	*Xtuplet	*	*
*	*	*rscale:1	*	*
2.An^\ 2.c 2.e- 2.f	.	48%1ccc\ 48%1cccc	.	.
.	.	(48%1een\LL 48%1eee-	.	.
.	.	48%1ff\ 48%1fff	.	.
.	.	48%1gg-\) 48%1ggg-	.	.
.	.	(48%1cc\ 48%1ccc	.	.
.	.	48%1dd-\ 48%1ddd-	.	.
.	.	48%1ee\) 48%1eee-	.	.
.	.	(48%1an\ 48%1aan	.	.
.	.	48%1b-\ 48%1bb-	.	.
.	.	48%1cc\) 48%1ccc	.	.
*	*	*X8va	*	*
.	.	(48%1en\ 48%1een	.	.
.	.	48%1f\JJ 48%1ff	.	.
*	*	*rscale:auto	*	*
!	!	!LO:N:vis=32	!	!
.	.	12%1g-^\LL) 12%1gg-	.	.
!	!	!LO:N:vis=32	!	!
.	.	(12%1f'\ 12%1ff	.	.
!	!	!LO:N:vis=32	!	!
.	.	12%1e'\JJ 12%1ee	.	.
!	!	!LO:N:vis=32	!	!
.	.	16%1f'\LL 16%1ff	.	.
!	!	!LO:N:vis=32	!	!
.	.	16%1ff\ 16%1fff	.	.
.	.	16%1rcc	.	.
!	!	!LO:N:vis=64	!	!
.	.	16%1cc\JJk) 16%1ccc	.	.
*Xped	*	*	*	*
!!LO:LB:g=original	!	!	!	!
=59	=59	=59	=59	=59
(8qBBB-/	.	.	.	.
*ped	*	*	*	*
2BB-/)	.	(2.ee-^\ 2.eee-	.	.
4F\ 4B- 4d-	.	.	.	.
=60	=60	=60	=60	=60
2.F^\ 2.B- 2.d-	.	2.dd-\) 2.ddd-	.	.
*Xped	*	*	*	*
=61	=61	=61	=61	=61
*ped	*	*	*	*
4BB-/	.	4cc\ 4ccc	.	.
4G-\ 4An 4e-	.	4.dd-^\ 4.ddd-	.	.
4c\	.	.	.	.
.	.	8an\ 8aan	.	.
=62	=62	=62	=62	=62
4BBB-/	.	2b-\ 2bb-	.	<
4F\ 4B- 4d-	.	.	.	.
4B-\	.	4ff\ 4fff	.	[[
=63	=63	=63	=63	=63
4BB-/	.	4ee-\ 4eee-	.	>
4G-^\ 4An 4e-	.	4dd-\ 4ddd-	.	.
4c\	.	4cc\ 4ccc	.	]]
!!LO:PB:g=original	!	!	!	!
=64	=64	=64	=64	=64
!	!	!	!	!LO:HP:a
4BBB-/	.	2dd-\ 2ddd-	.	>
4F'\ 4d-	.	.	.	.
4B-\	.	4b-\ 4bb-	.	]]
*Xped	*	*	*	*
=65	=65	=65	=65	=65
4BB-/	.	4cc\ 4ccc	.	.
4G-^\ 4An 4e-	.	4dd-^\ 4ddd-	.	.
4c\	.	4an\ 4aan	.	.
=66	=66	=66	=66	=66
*ped	*	*	*	*
4BBB-'/	.	4.b-\ 4.bb-	.	.
2F^\ 2B- 2d-	.	.	.	.
*	*	*8va	*	*
.	.	8bb-\ 8bbb-	.	.
.	.	8.ccc\L 8.cccc	.	.
.	.	16ddd-\Jk 16dddd-	.	.
*Xped	*	*	*	*
=67	=67	=67	=67	=67
*ped	*	*	*	*
4FF'/	.	4.ddd-\ 4.dddd-	.	.
2F^\ 2c 2e-	.	.	.	.
.	.	8ccc\ 8cccc	.	.
.	.	8ggn\L 8gggn	.	.
.	.	8aan\J 8aaan	.	.
*Xped	*	*	*	*
=68	=68	=68	=68	=68
*ped	*	*	*	*
2.BB-:\ 2.F: 2.d-:	.	8ccc^\L 8cccc	.	.
.	.	8bb-\J 8bbb-	.	.
*	*	*X8va	*	*
.	.	8een\L 8eeen	.	.
.	.	8ff\ 8fff	.	.
.	.	8dd-\ 8ddd-	.	.
.	.	8b-\J 8bb-	.	.
*Xped	*	*	*	*ped
!!LO:LB:g=original	!	!	!	!
=69	=69	=69	=69	=69
2.E-X^\ 2.G- 2.c 2.e-X	.	(8cc-X\L 8ccc-X	.	.
.	.	8dd-\ 8ddd-	.	.
.	.	8ee-\ 8eee-	.	.
.	.	8ff-X\) 8fff-X	.	.
.	.	8aa-^\ 8aaa-	.	.
.	.	8gg-\J 8ggg-	.	.
=70	=70	=70	=70	=70
!	!	!	!	!LO:DY:b:t=fs
2.F^\ 2.B- 2.d- 2.f	.	(8b-\L 8bb-	.	fz
.	.	8cc\ 8ccc	.	.
.	.	8dd-\ 8ddd-	.	.
.	.	8ee-\) 8eee-	.	.
.	.	8een^\ 8eeen	.	.
.	.	8ff\J 8fff	.	.
=71	=71	=71	=71	=71
2.F^\ 2.An 2.e-	.	8en\L 8een	.	<
.	.	8f\ 8ff	.	.
.	.	8g-^\ 8gg-	.	.
.	.	8f\ 8ff	.	[ >
.	.	16dd-\K 16ddd-	.	.
.	.	8dd-^\ 8ddd-	.	.
.	.	16cc\Jk 16ccc	.	]]
=72	=72	=72	=72	=72
2.B-\ 2.d-	.	(8b-\L 8bb-	.	.
.	.	8dd-\	.	.
.	.	8ff\	.	.
.	.	8bb-\	.	.
.	.	8ddd-\	.	.
.	.	8eeen\J)	4	.
!!LO:LB:g=original	!	!	!	!
=73	=73	=73	=73	=73
4r	.	8fff\L	.	.
.	.	(8ff\	.	.
4r	.	8een\	.	.
.	.	8ff\)	.	.
*clefG2	*	*	*	*
*ped	*	*	*	*
(4f^\ 4cc 4ee-	.	8.aan\ 8.ddd-	.	.
.	.	16ccc\Jk	.	.
=74	=74	=74	=74	=74
4b-\) 4dd-	.	8bb-\	.	.
.	.	8f\L	.	p
4r	.	8en\	.	.
.	.	(8f\	.	.
*clefF4	*	*	*	*
4F^\ 4c 4e-	.	16an\K) 16dd-	.	.
.	.	8a^\ 8dd-	.	.
.	.	16cc\Jk	.	.
=75	=75	=75	=75	=75
4B-\ 4d-	.	4b-\	.	.
4r	.	4ff'\	.	.
*ped	*	*	*	*
4FF/ 4F	.	4cc^\ 4ee- 4aan	.	.
=76	=76	=76	=76	=76
2BB-;</ 2F	.	2b-;\ 2dd- 2bb-	.	f
4r	.	4r	.	.
=77	=77	=77	=77	=77
!	!	!	!	!LO:DY:a:t=fs
!	!	!	!	!LO:HP:a
*ped	*	*	*	*
2.r	.	2.gg-\	.	fz > ]]
!!LO:LB:g=original	!	!	!	!
=78	=78	=78	=78	=78
[2.F^\ [2.c [2.e-	.	2.an^;/	.	f
=79	=79	=79	=79	=79
!	!	!LO:TX:i:a:t=ten	!	!
2.F^\_ 2.c_ 2.e-_	.	2b-\ 2gg-	.	.
.	.	4an\ 4ff	.	.
=80	=80	=80	=80	=80
*	*	*8va	*	*
2F\] 2c] 2e-]	.	8bb-^\L 8ggg-	.	.
.	.	8aan\J 8fff	.	.
.	.	8bb-^\L 8ggg-	.	.
.	.	8aa\J 8fff	.	.
4r	.	8bb-^\L 8ggg-	.	.
.	.	8aa\J 8fff	.	.
=81	=81	=81	=81	=81
!	!	!LO:TX:b:i:t=accel.	!	!
2.r	.	8bb-^\L 8ggg-	.	.
.	.	8aa-\ 8fff	.	.
.	.	(8ddd-\ 8bbb-	.	.
.	.	8ccc\) 8aaan	.	.
.	.	8.ggg-^\ 8.eeee-	.	.
.	.	16fff\Jk 16dddd-	.	.
=82	=82	=82	=82	=82
!	!	!	!	!LO:HP:b:t=dim.
2.r	.	8eee-\L 8cccc	.	>
.	.	8ddd-\ 8bbb-	.	.
.	.	8ccc\ 8aaan	.	.
.	.	8bb-^\ 8ggg-	.	.
.	.	8aan\ 8fff	.	.
.	.	8gg-\J 8eee-	.	.
*	*	*X8va	*	*
!!LO:LB:g=original	!	!	!	!
=83	=83	=83	=83	=83
!	!	!LO:TX:b:i:t=rallentando	!	!
2.r	.	8ff\L 8ddd-	.	.
.	.	8ee-\ 8ccc	.	.
.	.	8ddn\ 8bbn	.	.
.	.	8ee-\J 8ccc	.	.
!	!	!LO:TX:b:i:t=ten	!	!
.	.	8gg-^\L 8eee-	.	.
.	.	16r	.	.
.	.	16ff\Jk 16ddd-	.	.
=84	=84	=84	=84	=84
2r	.	2.dd-;\ 2.bb-	.	p
8r	.	.	.	.
!LO:N:vis=16	!	!	!	!
8BBB-/	.	.	.	.
=85	=85	=85	=85	=85
*ped	*	*	*	*
!LO:N:vis=2	!	!	!	!
[2.BBB-;</	.	2.r	.	.
=86	=86	=86	=86	=86
2BBB-/]	.	2.r	.	.
4r	.	.	.	.
=87	=87	=87	=87	=87
2.r	.	2.r	.	.
=88|	=88|	=88|	=88|	=88|
2.r	.	2.r	.	.
*Xped	*	*	*	*
==	==	==	==	==
*-	*-	*-	*-	*-
!!!system-decoration: {(s1,s2)}
!!!RDF**kern: > = above
!!!RDF**kern: < = below
!!!ENC: Berenika Jozajtis
!!!END: 2022-10-07
!!!ENC: Natalia Wrzos
!!!END: 2022-11-01
!!!YEC: Copyright 2022 Narodowy Instytut Fryderyka Chopina (https://polishscores.org)
!!!YEM: License CC-BY-4.0 (https://creativecommons.org/licenses/by/4.0)
